X: 4
T:Fox Hunter's Jig, The
M:9/8
L:1/8
R:Slip Jig
K:D
FGF F2D G2E|FGF FDF E2D|FGF F2D G2B|AFD DEF E2D|!
FGF F2D G2E|FGF FDF E2D|FGF F2D G2B|AFD DEF E2D|]!
BcB BAG FGA|B2E E2F G2B|ABc dcB ABc|d2D DEF E2D|!
BcB BAG FGA|B2E E2F G2B|ABc dcB ABc|d2D DEF E2D|]!
fgf f2d g2e|fgf fdf e2d|fgf fdf g2b|afd def e2d|!
fgf f2d g2e|fgf fdf e2d|fgf fdf g2b|afd def e2d|]!
gfe dcB AGF|B2E E2F G2B|ABc dcB ABc|d2D DEF E2D|!
gfe dcB AGF|B2E E2F G2B|ABc dcB ABc|d2D DEF E2D|]!
